assets/icons/utility/yubi_key.svg

<?xml version="1.0"?><svg xmlns="http://www.w3.org/2000/svg" width="52" height="52" viewBox="0 0 52 52"><g fill="#fff"><path d="m38.5 14.1h-37c-0.8 0-1.5 0.7-1.5 1.5v21c0 0.8 0.7 1.5 1.5 1.5h37c0.8 0 1.5-0.7 1.5-1.5v-21c0-0.8-0.7-1.5-1.5-1.5z m-17.5 18.1c-3.4 0-6.1-2.7-6.1-6.1s2.7-6.1 6.1-6.1 6.1 2.7 6.1 6.1-2.7 6.1-6.1 6.1z"></path><circle cx="21" cy="26.1" r="1.2"></circle><path d="m50.5 18h-14.5c-0.8 0-1.5 0.7-1.5 1.5v13c0 0.8 0.7 1.5 1.5 1.5h14.5c0.8 0 1.5-0.7 1.5-1.5v-13c0-0.8-0.7-1.5-1.5-1.5z m-3.4 4c0.6 0 1 0.4 1 1v1.9h-8.1v-2.9h7.1z m0 8h-7.1v-2.7h8.1v1.7c0 0.6-0.4 1-1 1z"></path></g></svg>

<svg xmlns="http://www.w3.org/2000/svg" x="0px" y="0px"
	 width="52px" height="52px" viewBox="0 0 52 52" enable-background="new 0 0 52 52" xml:space="preserve">
<g>
	<g>
		<path fill="#FFFFFF" d="M38.5,14.1h-37c-0.8,0-1.5,0.7-1.5,1.5v21c0,0.8,0.7,1.5,1.5,1.5h37c0.8,0,1.5-0.7,1.5-1.5v-21
			C40,14.8,39.3,14.1,38.5,14.1z M21,32.2c-3.4,0-6.1-2.7-6.1-6.1S17.6,20,21,20s6.1,2.7,6.1,6.1S24.4,32.2,21,32.2z"/>
		<circle fill="#FFFFFF" cx="21" cy="26.1" r="1.2"/>
	</g>
	<path fill="#FFFFFF" d="M50.5,18H36c-0.8,0-1.5,0.7-1.5,1.5v13c0,0.8,0.7,1.5,1.5,1.5h14.5c0.8,0,1.5-0.7,1.5-1.5v-13
		C52,18.7,51.3,18,50.5,18z M47.1,22c0.6,0,1,0.4,1,1v1.9H40V22H47.1z M47.1,30H40v-2.7h8.1V29C48.1,29.6,47.7,30,47.1,30z"/>
</g>
</svg>
